ZUCCAL
CUT["Kiltgang"
    JOSCHO EISI LASS MI INNE]
REG[Europa, Mitteleuropa, Schweiz]
KEY[Z1223  16  D 3/4]
MEL[+1_.5  5_3_3_1_1_3_  4__.4_
    5_6_  5__5__6_7_  +1___
    +1_.5  5_3_3_1_1_3_  4__4__
    5_6_  5__.5_6_7_  +1__0__
    +1_+2_  +3__.+2_+1_+3_  +2_7_5__
    +1_+2_  +3__.+2_+1_+3_  +2__0__
    +1_.5  5_3_3_1_1_3_  4__4__
    5_6_  5__5__6_7_  +1__0__ //] >>
FCT[Liebes - Lied]
